dist/svg/chart-area.svg

<!-- Generated by Trend Micro Style Portal -->
<svg version="1.1" xmlns="http://www.w3.org/2000/svg" width="16" height="16" viewBox="0 0 16 16">
  <title>chart-area</title>
  <path fill="rgb(34,34,34)" d="M15 13h-13v-4l3-6 4 6 3-4 3 3zM1 14v-13h-1v14h16v-1z"></path>
</svg>

<svg width="16" height="16" viewBox="0 0 16 16" fill="rgb(34, 34, 34)" xmlns="http://www.w3.org/2000/svg"><title>chart-area</title><path d="M15 13H2V9L5 3L9 9L12 5L15 8V13ZM1 14V1H0V15H16V14H1Z" fill="rgb(34, 34, 34)" fill-opacity="1.00"/></svg>
